src/lib/packages/icons/src/assets/line/amazon-pay.svg

<svg width="24" height="24" viewBox="0 0 24 24" fill="none" xmlns="http://www.w3.org/2000/svg">
<path d="M18 4.25H6C3.58 4.25 2.25 5.58 2.25 8V16C2.25 18.42 3.58 19.75 6 19.75H18C20.42 19.75 21.75 18.42 21.75 16V8C21.75 5.58 20.42 4.25 18 4.25ZM20.25 16C20.25 17.58 19.58 18.25 18 18.25H6C4.42 18.25 3.75 17.58 3.75 16V8C3.75 6.42 4.42 5.75 6 5.75H18C19.58 5.75 20.25 6.42 20.25 8V16ZM11.25 11.36C11.52 11.51 11.82 11.53 12.12 11.49C12.47 11.44 12.77 11.29 13.04 11.07C13.05 11.07 13.06 11.05 13.08 11.04C13.09 11.13 13.1 11.21 13.12 11.29C13.13 11.36 13.18 11.41 13.24 11.41C13.37 11.41 13.49 11.41 13.61 11.41C13.67 11.41 13.71 11.37 13.72 11.3C13.72 11.28 13.72 11.26 13.72 11.24V8.81C13.72 8.71 13.72 8.61001 13.7 8.51001C13.66 8.21001 13.53 7.97001 13.27 7.82001C13.12 7.73001 12.95 7.68 12.77 7.66C12.69 7.65 12.61 7.64 12.52 7.63H12.25C12.25 7.63 12.21 7.63 12.18 7.63C11.96 7.64 11.73 7.67001 11.52 7.73001C11.38 7.77001 11.25 7.81999 11.11 7.85999C11.03 7.88999 10.99 7.95001 10.99 8.04001C10.99 8.12001 10.99 8.18999 10.99 8.26999C10.99 8.37999 11.04 8.41001 11.15 8.38C11.33 8.33 11.51 8.28 11.69 8.25C11.97 8.2 12.26 8.18 12.54 8.22C12.69 8.24 12.83 8.29 12.93 8.41C13.01 8.52 13.04 8.65 13.05 8.78C13.05 8.97 13.05 9.16001 13.05 9.35001C13.05 9.36001 13.05 9.37 13.05 9.38C13.04 9.38 13.03 9.38 13.02 9.38C12.78 9.32 12.54 9.27999 12.29 9.26999C12.03 9.25999 11.77 9.26999 11.53 9.35999C11.23 9.45999 11 9.63999 10.86 9.92999C10.75 10.16 10.73 10.39 10.77 10.64C10.82 10.96 10.98 11.21 11.26 11.37L11.25 11.36ZM11.49 10.17C11.54 9.98001 11.68 9.87 11.86 9.81C12.05 9.75 12.24 9.74001 12.43 9.76001C12.62 9.78001 12.81 9.81 13 9.84C13.04 9.84 13.05 9.85999 13.05 9.89999C13.05 10.01 13.05 10.12 13.05 10.23C13.05 10.34 13.05 10.45 13.05 10.55C13.05 10.58 13.04 10.6 13.01 10.62C12.75 10.81 12.47 10.93 12.15 10.96C12.02 10.97 11.89 10.96 11.76 10.92C11.62 10.87 11.52 10.76 11.48 10.61C11.43 10.46 11.43 10.31 11.48 10.17H11.49ZM14.25 7.98001C14.25 7.98001 14.22 7.89 14.21 7.84C14.2 7.78 14.23 7.73999 14.29 7.73999C14.47 7.73999 14.64 7.73999 14.81 7.73999C14.88 7.73999 14.93 7.78001 14.96 7.85001C15.01 7.98001 15.06 8.10999 15.1 8.23999C15.4 9.05999 15.69 9.88 15.99 10.69C15.99 10.7 16 10.72 16.01 10.74C16.07 10.56 16.13 10.4 16.19 10.23L16.99 7.94C16.99 7.94 17.01 7.88001 17.03 7.85001C17.06 7.77001 17.12 7.73001 17.21 7.73001C17.36 7.73001 17.51 7.73001 17.67 7.73001C17.74 7.73001 17.77 7.76999 17.75 7.82999C17.75 7.86999 17.73 7.90999 17.71 7.95999C17.17 9.32999 16.63 10.7 16.09 12.07C16.03 12.21 15.96 12.36 15.88 12.49C15.68 12.83 15.37 12.99 14.98 12.98C14.85 12.98 14.72 12.96 14.59 12.93C14.46 12.91 14.42 12.85 14.42 12.72C14.42 12.65 14.42 12.57 14.42 12.49C14.42 12.41 14.46 12.38 14.54 12.38C14.6 12.38 14.65 12.4 14.71 12.4C14.83 12.41 14.95 12.4 15.06 12.38C15.22 12.33 15.34 12.22 15.41 12.07C15.49 11.9 15.55 11.73 15.62 11.56C15.66 11.46 15.65 11.39 15.62 11.29C15.17 10.18 14.72 9.06999 14.27 7.95999L14.25 7.98001ZM17.72 14.59C17.66 14.66 17.58 14.71 17.5 14.76C16.8 15.24 16.03 15.59 15.22 15.86C14.66 16.04 14.09 16.17 13.5 16.26C13.1 16.32 12.69 16.36 12.28 16.37C12.26 16.37 12.24 16.37 12.22 16.37H11.74C11.74 16.37 11.7 16.37 11.68 16.37C11.6 16.37 11.52 16.37 11.43 16.36C11.04 16.34 10.66 16.3 10.28 16.24C9.65003 16.14 9.04 15.98 8.44 15.76C7.2 15.31 6.08998 14.65 5.09998 13.77C5.05998 13.73 5.03 13.68 5 13.64V13.59C5.05 13.49 5.11997 13.48 5.21997 13.53C5.45997 13.66 5.68999 13.79 5.92999 13.91C6.85999 14.38 7.83998 14.73 8.84998 14.97C9.32998 15.08 9.80999 15.18 10.3 15.24C11.02 15.34 11.75 15.38 12.48 15.36C12.88 15.35 13.28 15.32 13.67 15.27C14.96 15.12 16.21 14.79 17.41 14.29C17.48 14.26 17.54 14.24 17.62 14.26C17.77 14.3 17.83 14.47 17.71 14.59H17.72ZM19.01 13.51C19.01 13.64 19.01 13.78 19.01 13.91C19 13.99 18.98 14.08 18.96 14.16C18.86 14.62 18.69 15.06 18.39 15.43C18.31 15.54 18.2 15.64 18.1 15.74C18.07 15.77 18.03 15.79 17.99 15.8C17.92 15.81 17.89 15.77 17.9 15.7C17.9 15.68 17.91 15.65 17.92 15.63C18.06 15.29 18.19 14.95 18.28 14.6C18.33 14.43 18.37 14.25 18.36 14.07C18.36 13.95 18.3 13.86 18.19 13.83C18.08 13.8 17.97 13.78 17.86 13.77C17.6 13.75 17.34 13.77 17.07 13.79L16.54 13.85C16.54 13.85 16.51 13.85 16.49 13.85C16.45 13.85 16.42 13.85 16.41 13.81C16.41 13.78 16.41 13.74 16.42 13.72C16.44 13.69 16.47 13.66 16.5 13.64C16.78 13.45 17.09 13.34 17.42 13.28C17.72 13.23 18.02 13.21 18.32 13.24C18.48 13.25 18.65 13.28 18.8 13.33C18.9 13.36 18.99 13.41 19.01 13.52V13.51ZM6.95001 12.9C7.11001 12.9 7.26999 12.9 7.42999 12.9C7.49999 12.9 7.53998 12.85 7.53998 12.79C7.53998 12.77 7.53998 12.74 7.53998 12.72V11.06C7.53998 11.06 7.58003 11.09 7.59003 11.1C8.00003 11.44 8.46999 11.55 8.98999 11.45C9.45999 11.36 9.77999 11.07 9.98999 10.65C10.15 10.33 10.22 9.99001 10.23 9.64001C10.24 9.25001 10.2 8.86 10.04 8.5C9.84998 8.05 9.51998 7.75 9.03998 7.66C8.96998 7.64 8.89001 7.64 8.82001 7.63H8.63C8.63 7.63 8.56003 7.63001 8.53003 7.64001C8.21003 7.68001 7.91997 7.79999 7.65997 7.98999C7.60997 8.02999 7.55 8.06999 7.5 8.10999C7.5 8.09999 7.49999 8.08999 7.48999 8.07999C7.47999 8.01999 7.47002 7.95001 7.46002 7.89001C7.44002 7.78001 7.39003 7.73999 7.28003 7.73999H7.01001C6.85001 7.73999 6.82001 7.76999 6.82001 7.92999V12.72C6.82001 12.72 6.82001 12.77 6.82001 12.79C6.82001 12.86 6.86999 12.9 6.92999 12.9H6.95001ZM7.54999 9.54999V8.57999C7.54999 8.57999 7.56003 8.53001 7.59003 8.51001C7.90003 8.29001 8.25 8.17999 8.63 8.20999C8.97001 8.22999 9.25002 8.39999 9.40002 8.79999C9.49002 9.03999 9.51001 9.3 9.51001 9.56C9.51001 9.8 9.48998 10.03 9.41998 10.26C9.25998 10.75 8.91 10.94 8.44 10.91C8.12 10.9 7.84002 10.77 7.58002 10.59C7.56002 10.57 7.53998 10.55 7.53998 10.51C7.53998 10.19 7.53998 9.87001 7.53998 9.54001L7.54999 9.54999Z" fill="currentColor"/>
</svg>

<svg xmlns="http://www.w3.org/2000/svg" width="24" height="24" fill="none"><path fill="currentColor" d="M18 4.25H6C3.58 4.25 2.25 5.58 2.25 8v8c0 2.42 1.33 3.75 3.75 3.75h12c2.42 0 3.75-1.33 3.75-3.75V8c0-2.42-1.33-3.75-3.75-3.75ZM20.25 16c0 1.58-.67 2.25-2.25 2.25H6c-1.58 0-2.25-.67-2.25-2.25V8c0-1.58.67-2.25 2.25-2.25h12c1.58 0 2.25.67 2.25 2.25v8Zm-9-4.64c.27.15.57.17.87.13.35-.05.65-.2.92-.42.01 0 .02-.02.04-.03.01.09.02.17.04.25.01.07.06.12.12.12h.37c.06 0 .1-.04.11-.11V8.81c0-.1 0-.2-.02-.3-.04-.3-.17-.54-.43-.69-.15-.09-.32-.14-.5-.16l-.25-.03h-.34c-.22.01-.45.04-.66.1-.14.04-.27.09-.41.13-.08.03-.12.09-.12.18v.23c0 .11.05.14.16.11.18-.05.36-.1.54-.13.28-.05.57-.07.85-.03.15.02.29.07.39.19.08.11.11.24.12.37v.6h-.03c-.24-.06-.48-.1-.73-.11-.26-.01-.52 0-.76.09-.3.1-.53.28-.67.57-.11.23-.13.46-.09.71.05.32.21.57.49.73l-.01-.01Zm.24-1.19c.05-.19.19-.3.37-.36.19-.06.38-.07.57-.05.19.02.38.05.57.08.04 0 .05.02.05.06v.65c0 .03-.01.05-.04.07a1.7 1.7 0 0 1-.86.34c-.13.01-.26 0-.39-.04a.438.438 0 0 1-.28-.31.664.664 0 0 1 0-.44h.01Zm2.76-2.19s-.03-.09-.04-.14c-.01-.06.02-.1.08-.1h.52c.07 0 .12.04.15.11.05.13.1.26.14.39.3.82.59 1.64.89 2.45 0 .01.01.03.02.05.06-.18.12-.34.18-.51l.8-2.29s.02-.06.04-.09c.03-.08.09-.12.18-.12h.46c.07 0 .1.04.08.1 0 .04-.02.08-.04.13l-1.62 4.11c-.06.14-.13.29-.21.42-.2.34-.51.5-.9.49-.13 0-.26-.02-.39-.05-.13-.02-.17-.08-.17-.21v-.23c0-.08.04-.11.12-.11.06 0 .11.02.17.02.12.01.24 0 .35-.02.16-.05.28-.16.35-.31.08-.17.14-.34.21-.51.04-.1.03-.17 0-.27l-1.35-3.33-.02.02Zm3.47 6.61c-.06.07-.14.12-.22.17-.7.48-1.47.83-2.28 1.1-.56.18-1.13.31-1.72.4-.4.06-.81.1-1.22.11h-.6c-.08 0-.16 0-.25-.01-.39-.02-.77-.06-1.15-.12-.63-.1-1.24-.26-1.84-.48-1.24-.45-2.35-1.11-3.34-1.99-.04-.04-.07-.09-.1-.13v-.05c.05-.1.12-.11.22-.06.24.13.47.26.71.38.93.47 1.91.82 2.92 1.06.48.11.96.21 1.45.27.72.1 1.45.14 2.18.12.4-.01.8-.04 1.19-.09 1.29-.15 2.54-.48 3.74-.98.07-.03.13-.05.21-.03.15.04.21.21.09.33h.01Zm1.29-1.08v.4c-.01.08-.03.17-.05.25-.1.46-.27.9-.57 1.27-.08.11-.19.21-.29.31-.03.03-.07.05-.11.06-.07.01-.1-.03-.09-.1 0-.02.01-.05.02-.07.14-.34.27-.68.36-1.03.05-.17.09-.35.08-.53 0-.12-.06-.21-.17-.24a1.91 1.91 0 0 0-.33-.06c-.26-.02-.52 0-.79.02l-.53.06h-.05c-.04 0-.07 0-.08-.04 0-.03 0-.07.01-.09.02-.03.05-.06.08-.08.28-.19.59-.3.92-.36.3-.05.6-.07.9-.04.16.01.33.04.48.09.1.03.19.08.21.19v-.01ZM6.95 12.9h.48c.07 0 .11-.05.11-.11v-1.73s.04.03.05.04c.41.34.88.45 1.4.35.47-.09.79-.38 1-.8.16-.32.23-.66.24-1.01.01-.39-.03-.78-.19-1.14-.19-.45-.52-.75-1-.84-.07-.02-.15-.02-.22-.03h-.19s-.07 0-.1.01c-.32.04-.61.16-.87.35-.05.04-.11.08-.16.12 0-.01 0-.02-.01-.03l-.03-.19c-.02-.11-.07-.15-.18-.15h-.27c-.16 0-.19.03-.19.19v4.86c0 .07.05.11.11.11h.02Zm.6-3.35v-.97s.01-.05.04-.07c.31-.22.66-.33 1.04-.3.34.02.62.19.77.59.09.24.11.5.11.76 0 .24-.02.47-.09.7-.16.49-.51.68-.98.65-.32-.01-.6-.14-.86-.32-.02-.02-.04-.04-.04-.08v-.97l.01.01Z"/></svg>
